svg/air_purifier_off.svg

<svg xmlns="http://www.w3.org/2000/svg" viewBox="0 0 24 24"><path d="M21 11c-2.4 0-2.5 1.9-4.8 2l-.2-.2V11c2.5 0 2.5-2 5-2zm1.1 10.5-1.3 1.3-2.8-2.9V22H3V8c0-.9.3-1.7.8-2.3L1.1 3l1.3-1.3zM9 13c0 1.1.9 2 2 2 .6 0 1.1-.3 1.5-.6l-2.8-2.8c-.4.3-.7.8-.7 1.4m7 4.9-2.1-2.1c-.7.7-1.8 1.2-2.9 1.2-2.2 0-4-1.8-4-4 0-1.1.5-2.2 1.2-2.9l-3-3c-.1.3-.2.6-.2.9v12h11zm5-2.9v-2c-1.7 0-2.3 1-3.3 1.5l1.1 1.1c.6-.3 1.2-.6 2.2-.6m-7-9c1.1 0 2 .9 2 2v1h2V8c0-2.2-1.8-4-4-4H7.2l2 2z"/></svg>

<svg xmlns="http://www.w3.org/2000/svg" id="mdi-air-purifier-off" viewBox="0 0 24 24"><path d="M21 11C18.6 11 18.5 12.9 16.2 13L16 12.8V11C18.5 11 18.5 9 21 9V11M22.1 21.5L20.8 22.8L18 19.9V22H3V8C3 7.1 3.3 6.3 3.8 5.7L1.1 3L2.4 1.7L22.1 21.5M9 13C9 14.1 9.9 15 11 15C11.6 15 12.1 14.7 12.5 14.4L9.7 11.6C9.3 11.9 9 12.4 9 13M16 17.9L13.9 15.8C13.2 16.5 12.1 17 11 17C8.8 17 7 15.2 7 13C7 11.9 7.5 10.8 8.2 10.1L5.2 7.1C5.1 7.4 5 7.7 5 8V20H16V17.9M21 15V13C19.3 13 18.7 14 17.7 14.5L18.8 15.6C19.4 15.3 20 15 21 15M14 6C15.1 6 16 6.9 16 8V9H18V8C18 5.8 16.2 4 14 4H7.2L9.2 6H14Z" /></svg>
